X:363
T: SPIELT MIR MAL DIE SIEBEN SPRUENGE
N: E0992A
O: Europa, Mitteleuropa, Deutschland, Uckermark, Grenzow
R: Tanz - Lied, Reigen, Siebensprung
M: 2/4
L: 1/8
K: G
 | GBdB | cABG |
GBdB | cAG2 |
AAAA | AFD2 |
AAAA | AFD
d | B3d | B4

